!!!COM: Bach, Johann Sebastian
!!!OTL@@DE: 310. Mach's mit mir, Gott, nach deiner G&uuml;t'
!!!OTL@EN: Do with me as Thy goodness prompts Thee
!!!SCA: BWV 245.22
**kern	**kern	**kern	**kern
*staff2	*staff2	*staff1	*staff1
*Iorgan	*Iorgan	*Iorgan	*Iorgan
*>[A,A,B]	*>[A,A,B]	*>[A,A,B]	*>[A,A,B]
*>norep[A,B]	*>norep[A,B]	*>norep[A,B]	*>norep[A,B]
*>A	*>A	*>A	*>A
!bass	!tenor	!alto	!sprno
*clefF4	*clefF4	*clefG2	*clefG2
*k[f#c#g#d#]	*k[f#c#g#d#]	*k[f#c#g#d#]	*k[f#c#g#d#]
*met(C)	*met(C)	*met(C)	*met(C)
*M4/4	*M4/4	*M4/4	*M4/4
*MM60	*MM60	*MM60	*MM60
4E\	8G#/L	4B\	8e/L
.	8A/J	.	8f#/J
=1	=1	=1	=1
4E\	4B/	4e\	4g#/
4C#\	4c#/	4e\	4a/
4GG#\	4dn/	4e\	4b/
4C#\	8c#/L	4e\	4b/
.	8B/J	.	.
=2	=2	=2	=2
4F#\	4c#/	8e\L	4a/
.	.	8d#\J	.
8G#\L	4B/	4e\	4g#/
8A\J	.	.	.
4B;\	4B;/	4d#;\	4f#;/
4B\	4d#/	4f#\	4b/
=3	=3	=3	=3
4A#\	4c#/	4f#\	4cc#/
8G#\L	4f#/	4a#\	4dd#/
8F#\J	.	.	.
8G#\L	8B/L	8b\L	4ee/
8A#\J	8c#/J	8f#\J	.
4B\	8d#/L	4f#\	8dd#/L
.	8e/J	.	8cc#/J
=4	=4	=4	=4
4E\	8e/L	4g#\	2cc#/
.	8d#/J	.	.
4F#\	4c#/	4a#\	.
4BB;\	4d#;/	4f#;\	4b;/
=:|!	=:|!	=:|!	=:|!
*>B	*>B	*>B	*>B
8E\L	4e/	4g#\	4b/
8D#\J	.	.	.
=5	=5	=5	=5
!!linebreak: 2
4C#\	4g#/	4cc#\	4ee/
4GG#\	4g#/	[4b\	8dd#/L
.	.	.	8cc#/J
4AA\	8g#/L	8b\L]	4cc#/
.	8f#/J	[8a\J	.
4BB\	8f#/L	8a\L]	4b/
.	8d#/J	[8g#\J	.
=6	=6	=6	=6
8C#\L	8e/L	8g#\L]	4a/
8D#\J	8B/J	8f#\J	.
4E\	4B/	4e\	8g#/L
.	.	.	8f#/J
4BB;\	4B;/	4d#;\	4f#;/
4BB\	8G#/L	4dn\	4b/
.	8F#/J	.	.
=7	=7	=7	=7
4Cn\	4E/	4cn\	4a/
4C#\	4E#/	4B\	4g#/
4Dn\	4F#/	8A\L	8f#/L
.	.	8B\J	8g#/J
4D#\	4F#/	4cn\	4a/
=8	=8	=8	=8
4E\	8.G#/L	8B\L	4g#/
.	.	[8e\J	.
.	16A/Jk	.	.
4BB\	8B/L	8e\L]	4f#/
.	8F#/J	8d#\J	.
4E;\	4G#;/	4B;\	4e;/
==	==	==	==
*-	*-	*-	*-
!!!ENC: Craig Stuart Sapp
!!!END: 2004/12/06/
!!chor2scor: -l 2 -s 0.6 -o %b.pmx
